X:12042
T:Lass O' Patie's Mill, The
R:Reel
C:Words Allan Ramsay 1725, to older tune.
O:Scotland
Z:Paul Hardy's Session Tunebook 2022 (see www.paulhardy.net). Creative Commons cc by-nc-sa licenced.
M:4/4
L:1/8
Q:1/4=100
K:D
A2|"D"GFED F2A2|"Bm"d2>e2 f2A2|"G"Bcdc BAGF|"A"F4E2A2|
"D"GFED F2A2|"Bm"d2>e2 f2A2|"G"BcdB "A"cdef|"D"d4d2:|
|:ef|"G"gfed "A"c2A2|"D"dcde "F#m"f2A2|"G"Bcdc BAGF|"A"F4E2A2|
"D"GFED F2A2|"Bm"d2>e2 f2A2|"G"BcdB "A"cdef|"D"d4d2:|

